!!!!SEGMENT: pl-wtm--r-66-n--011_noskowski-zygmunt-piesni-ludowe-op-51-choc-z-gliny.krn
!!!id: 18xx:2289
!!!COM: Noskowski, Zygmunt
!!!OTL: Pieśni ludowe op. 51 - Choć z gliny
!!!PDT:
!!!SMS-siglum: PL-Wtm
!!!SMS-shelfmark: R 66/N
!!!NIFC-rismID: 1001096738
!!!URL-scan: http://repozytorium.nifc.pl/skany/pl-wtm-nut--r66n
!!!ONB-nifc: UWAGA: na podstawie partytur z folderu pl-wtm-r66n
!!!SMS-variant:
!!!SMS-altvar:
!!!OMD: Poco Allegro
**kern	**text	**dynam	**kern	**text	**text	**dynam
*part2	*part2	*part2	*part1	*part1	*part1	*part1
*staff2	*staff2	*	*staff1	*staff1	*staff1	*
*I"Basy	*	*	*I"Tenory	*	*	*
*clefF4	*	*	*clefG2	*	*	*
*	*	*	*ITrd8c12	*	*	*
*k[b-e-a-d-]	*	*	*k[b-e-a-d-]	*	*	*
*M2/4	*	*	*M2/4	*	*	*
*all\right	*	*	*all\right	*	*	*
=1	=1	=1	=1	=1	=1	=1
*^	*	*	*	*	*	*
!	!LO:TX:b:t=P:problem:akcent nad nutą	!	!LO:DY:rj:b	!	!	!	!
4E-^/	4AA-^\	Oj!	p	2r	.	.	.
8E-/	8AA-\	dy-	.	.	.	.	.
8E-/	8AA-\	-na	.	.	.	.	.
=2	=2	=2	=2	=2	=2	=2	=2
8E-/	8AA-\	dy-	.	2r	.	.	.
8E-/	8AA-\	-na	.	.	.	.	.
8E-/	8AA-\	dy-	.	.	.	.	.
8E-/	8AA-\	-na	.	.	.	.	.
=3	=3	=3	=3	=3	=3	=3	=3
*	*	*	*	*^	*	*	*
!	!LO:TX:b:t=P:problem:akcent nad nutą	!	!	!	!	!	!	!LO:DY:rj:b
4E-^/	4AA-^\	Oj!	.	8a-/	8c\	1._Choć	2._U-	mf
.	.	.	.	8e-/	8c\	z_gli-	-bo-	.
8E-/	8AA-\	dy-	.	8c/	8A-\	-ny	-gi	.
8E-/	8AA-\	-na	.	8e-/	8c\	mam	ja	.
=4	=4	=4	=4	=4	=4	=4	=4	=4
8F/	8AA-\	dy-	.	4d-/	4A-\	do-	je-	.
8F/	8AA-\	-na	.	.	.	.	.	.
8D-/	8AA-\	dy-	.	4B-/	4G\	-mek,	-stem,	.
8D-/	8AA-\	-na	.	.	.	.	.	.
=5	=5	=5	=5	=5	=5	=5	=5	=5
8C/	8AA-\	dy-	.	8A-/	8A-\	Nie	Mam	.
8C/	8AA-\	-na	.	8A-/	8A-\	dbam	w_żu-	.
8E-/	8AA-\	dy-	.	8c/	8A-\	o	-pa-	.
8E-/	8AA-\	-na	.	8e-/	8c\	pa-	-nie	.
!!LO:LB:g=original
=6	=6	=6	=6	=6	=6	=6	=6	=6
8F/	8AA-\	dy-	.	(<8e-/L	4A-\	-ła-	ła-	.
8F/	8AA-\	-na	.	8d-/J)	.	.	.	.
8D-/	8AA-\	dy-	.	4B-/	4G\	-ce,	-ty	.
8D-/	8AA-\	-na	.	.	.	.	.	.
=7	=7	=7	=7	=7	=7	=7	=7	=7
8C/	8AA-\	dy-	.	8A-/	8E-\	U-	Lecz	.
8E-/	8AA-\	-na	.	4c/	4A-\	-bo-	ser-	.
8F/	8F\	dy-	.	.	.	.	.	.
8F/	8E-\	-na	.	8c/	8A-\	-gim	-ce	.
=8	=8	=8	=8	=8	=8	=8	=8	=8
8F/	8D-\	dy-	.	8d-/	8A-\	się	pocz-	.
8A-/	8D-\	-na	.	4f/	4d-\	ro-	-ci-	.
8A-/	8C\	dy-	.	.	.	.	.	.
8G/	8BB-\	-na	.	8f/	8d-\	-dził,	-we,	.
=9	=9	=9	=9	=9	=9	=9	=9	=9
8A-/	8C\	dy-	.	8e-/	8c\	Nic	Więc	.
8D-/	8BB-\	-na	.	8e-/	8G\	na	je-	.
8E-/	8AA-\	dy-	.	8c/	8A-\	tem	-stem	.
8E-/	8AA-\	-na	.	8e-/	8c\	nie	bo-	.
=10	=10	=10	=10	=10	=10	=10	=10	=10
!	!	!	!	!	!LO:TX:b:t=P:problem:łuk między główkami nut	!	!	!
8E-/	8GG\	dy-	.	(<8e-/L	(8B-\L	tra-	-ga-	.
8E-/	8BB-\	-na	.	8d-/J)	8G\J)	.	.	.
8E-/	8E-\	dy-	.	4B-/	4G\	-cę.	-ty.	.
8E-/	8D-\	-na	.	.	.	.	.	.
!!LO:LB:g=original
=11	=11	=11	=11	=11	=11	=11	=11	=11
8E-/	8C\	dy-	.	8A-/	8A-\	U-	Lecz	.
8A-/	8E-\	-na	.	4c/	4A-\	-bo-	ser-	.
8A-/	8A-\	dy-	.	.	.	.	.	.
8G-X/	8G-\	-na	.	8c/	8A-\	-gim	-ce	.
=12	=12	=12	=12	=12	=12	=12	=12	=12
8F/	8F\	dy-	.	8d-/	8A-\	sie	pocz-	.
8Gn/	8E-\	-na	.	4f/	4d-\	ro-	-ci-	.
8A-/	8F\	dy-	.	.	.	.	.	.
8B-/	8G\	-na	.	8f/	8d-\	-dził	-we,	.
=13	=13	=13	=13	=13	=13	=13	=13	=13
8A-/	8A-\	dy-	.	8e-/	8c\	Nic	Więc	.
!	!LO:TX:b:t=P:problem:łuk między główkami nut	!	!	!	!	!	!	!
8A-/	(16G\LL	-na	.	8e-/	8c\	na	je-	.
.	16F\JJ)	.	.	.	.	.	.	.
8A-/	8E-\	dy-	.	8c/	8c\	tem	-stem	.
8E-/	8C\	-na	.	8e-/	8A-\	nie	bo-	.
=14	=14	=14	=14	=14	=14	=14	=14	=14
8F/	8BB-\	dy-	.	(<8e-/L	4A-\	tra-	-ga-	.
8F/	8BB-\	-na	.	8d-/J)	.	.	.	.
8E-/	8E-\	dy-	.	4B-/	4G\	-cę.	-ty.	.
8E-/	8E-\	-na.	.	.	.	.	.	.
=15	=15	=15	=15	=15	=15	=15	=15	=15
!	!	!	!LO:DY:rj:b	!	!	!	!	!LO:DY:rj:b
4E-/	4AA-\	.	f	4e-/	4c\	Oj!	Oj!	f
8E-/	8C\	.	.	(<16d/LL	8A-\	dy-	dy-	.
.	.	.	.	16e-/JJ)	.	.	.	.
8E-/	8C\	.	.	(<16f/LL	8A-\	-na	-na	.
.	.	.	.	16e-/JJ)	.	.	.	.
!!LO:PB:g=original
=16	=16	=16	=16	=16	=16	=16	=16	=16
8D-/	8BB-\	.	.	(<16d/LL	8G\	dy-	dy-	.
.	.	.	.	16e-/JJ)	.	.	.	.
8D-/	8BB-\	.	.	(<16f/LL	8G\	-na	-na	.
.	.	.	.	16e-/JJ)	.	.	.	.
8E-/	8GG\	.	.	(<16d/LL	8B-\	dy-	dy-	.
.	.	.	.	16e-/JJ)	.	.	.	.
8E-/	8E-\	.	.	(<16f/LL	8d-X\	-na	-na	.
.	.	.	.	16g/JJ)	.	.	.	.
=17	=17	=17	=17	=17	=17	=17	=17	=17
8E-/	8AA-\	.	.	8a-/	8c\	Du-	Pra-	.
8E-/	8C\	.	.	8e-/	8A-\	-ża	-gnę	.
8E-/	8E-\	.	.	8c/	8A-\	wo-	spo-	.
8A-/	8A-\	.	.	8e-/	8c\	-da	-koj-	.
=18	=18	=18	=18	=18	=18	=18	=18	=18
!LO:TX:a:t=P:problem:łuk między główkami nut	!LO:TX:b:t=P:problem:łuk między główkami nut	!	!	!	!	!	!	!
(8A-/L	(8F\L	.	.	4d-/	4d-\	pły-	-no-	.
8G/J)	8E-\J)	.	.	.	.	.	.	.
!LO:TX:a:t=P:problem:łuk między główkami nut	!LO:TX:b:t=P:problem:łuk między główkami nut	!	!	!	!	!	!	!
(8F/L	(8D-\L	.	.	4B-/	4B-\	-nie,	-ści,	.
8G/J)	8E-\J)	.	.	.	.	.	.	.
=19	=19	=19	=19	=19	=19	=19	=19	=19
8E-/	8C\	.	.	8A-/	8A-\	A	A-	.
8D-/	8BB-\	.	.	8A-/	8A-\	ma-	-le	.
8E-/	8AA-\	.	.	8c/	8A-\	-ły	nie	.
8E-/	8C\	.	.	8e-/	8A-\	młyn	ma-	.
=20	=20	=20	=20	=20	=20	=20	=20	=20
4F/	4BB-\	.	.	(<8e-/L	4A-\	mie-	-jąt-	.
.	.	.	.	8d-/J)	.	.	.	.
4E-/	4E-\	.	.	4B-/	4G\	-le,	-ku,	.
!!LO:LB:g=original
=21	=21	=21	=21	=21	=21	=21	=21	=21
8F/	8F\	.	.	8A-/	8A-\	Nie	Bę-	.
4F/	4E-\	.	.	4c/	4A\	każ-	-dę	.
8F/	8E-\	.	.	8c/	8A\	-dy	ja	.
=22	=22	=22	=22	=22	=22	=22	=22	=22
8F/	8D-\	.	.	8d-/	8B-\	szczę-	szczę-	.
4F/	4BB-\	.	.	4f/	4d-\	-śli-	-śli-	.
8G/	8BB-\	.	.	8f/	8d-\	-wy,	-wym	.
=23	=23	=23	=23	=23	=23	=23	=23	=23
8A-/	8C\	.	.	8e-/	8c\	Co	I	.
8G-X/	8C\	.	.	8e-/	8A-\	po-	w_ma-	.
8G-/	8AA-\	.	.	8c/	8A-\	-sia-	-łym	.
8G-/	8C\	.	.	8e-/	8A-\	-da	za-	.
=24	=24	=24	=24	=24	=24	=24	=24	=24
!	!LO:TX:b:t=P:problem:łuk między główkami nut	!	!	!LO:TX:a:t=P:problem:łuk między główkami nut	!LO:TX:b:t=P:problem:łuk między główkami nut	!	!	!
4F/	(8D-\L	.	.	(8e-/L	(8A-\L	wie-	-kąt-	.
.	8BB-\J)	.	.	8d-/J)	8B-\J)	.	.	.
!	!LO:TX:b:t=P:problem:łuk między główkami nut	!	!	!	!	!	!	!
4E-/	(8E-\L	.	.	4B-/	4G\	-le.	-ku.	.
.	8D-\J)	.	.	.	.	.	.	.
=25	=25	=25	=25	=25	=25	=25	=25	=25
8E-/	8C\	.	.	8A-/	8A-\	Nie	Bę-	.
4A-/	4E-\	.	.	4c/	4c\	każ-	-dę	.
8A-/	8En\	.	.	8c/	8c\	-dy	ja	.
!!LO:LB:g=original
=26	=26	=26	=26	=26	=26	=26	=26	=26
8A-/	8F\	.	.	8d-/	8d-\	szczę-	szczę-	.
4A-/	4BB-\	.	.	4f/	4d\	-śli-	-śli-	.
8G/	8BBn\	.	.	8f/	8d\	-wy,	-wym	.
=27	=27	=27	=27	=27	=27	=27	=27	=27
!LO:TX:b:i:t=poco ritenuto.	!	!	!	!LO:TX:a:i:t=poco ritenuto	!	!	!	!
8G/	8C\	.	.	8e-/	8c\	Co	I	.
8An/	8F\	.	.	8c/	8c\	po-	w_ma-	.
8F/	8BB-X\	.	.	(<16e-/LL	8B-\	-sia-	-łym	.
.	.	.	.	16d-/JJ)	.	.	.	.
8E-/	8E-\	.	.	(<16B-/LL	8G\	-da	za-	.
.	.	.	.	16G/JJ)	.	.	.	.
=28	=28	=28	=28	=28	=28	=28	=28	=28
!	!	!	!	!	!LO:TX:b:t=P:problem:łuk między główkami nut	!	!	!
16D-/LL	8AA-\	.	.	(<16B-/LL	(16G\LL	wie-	-kąt-	.
16C/JJ	.	.	.	16A-/JJ)	16A-\JJ)	.	.	.
4C/	4AA-\	.	.	4A-/	4A-\	-le.	-ku.	.
8r	8ryy	.	.	8r	8ryy	.	.	.
=29:|!	=29:|!	=29:|!	=29:|!	=29:|!	=29:|!	=29:|!	=29:|!	=29:|!
!	!	!	!LO:DY:rj:a	!	!	!	!	!LO:DY:rj:b
4A-/	(>8AA-\L	.	f	4e-/	4c\	Oj	.	f
.	8A-\J)	.	.	.	.	.	.	.
8A-/	8G\	.	.	(16d/LL	8c\	dy-	.	.
.	.	.	.	16e-/JJ)	.	.	.	.
8A-/	8F\	.	.	(<16f/LL	8c\	-na	.	.
.	.	.	.	16e-/JJ)	.	.	.	.
=30	=30	=30	=30	=30	=30	=30	=30	=30
8A-/	8E-\	.	.	(<16d/LL	8c\	dy-	.	.
.	.	.	.	16e-/JJ)	.	.	.	.
8G/	8D-\	.	.	(<16f/LL	8B-\	-na	.	.
.	.	.	.	16e-/JJ)	.	.	.	.
8A-/	8C\	.	.	16d/LL	8c\	dy-	.	.
.	.	.	.	16e-/JJ	.	.	.	.
8E-/	8BB-\	.	.	(<16f/LL	8d-X\	-na	.	.
.	.	.	.	16g/JJ)	.	.	.	.
=31	=31	=31	=31	=31	=31	=31	=31	=31
[2E-/	[2AA-\	.	.	[2a-/	[2c\	dy-	.	.
=32	=32	=32	=32	=32	=32	=32	=32	=32
2E-/]	2AA-\]	.	.	2a-/]	2c\]	.	.	.
=33	=33	=33	=33	=33	=33	=33	=33	=33
4C^^/	4AA-\	.	.	4A-^^/	4E-\	-na	.	.
4r	4ryy	.	.	4r	4ryy	.	.	.
*v	*v	*	*	*	*	*	*	*
*	*	*	*v	*v	*	*	*
==	==	==	==	==	==	==
*-	*-	*-	*-	*-	*-	*-
!!!system-decoration: {(s1,s2)}
!!!RDF**kern: > = above
!!!RDF**kern: < = below
!!!ENC: Krzysztof Stępień
!!!END: 2021-06-01
!!!ENC: Andrzej Kubiczek
!!!END: 2021-06-09
